packages/foundations/assets/icons/functional/images/arrows/arrow_left_16.svg

<svg width="16" height="16" viewBox="0 0 16 16" fill="none" xmlns="http://www.w3.org/2000/svg">
<g clip-path="url(#clip0_77_475)">
<path fill-rule="evenodd" clip-rule="evenodd" d="M2.65002 7.45004C2.57047 7.51769 2.50682 7.60205 2.4636 7.69712C2.42039 7.79219 2.39868 7.89562 2.40002 8.00004C2.40002 8.20004 2.47502 8.40004 2.65002 8.57504L6.62502 12.575C6.77502 12.725 7.00002 12.8 7.20002 12.8C7.65002 12.8 8.00002 12.45 8.00002 12C8.00002 11.8 7.92502 11.6 7.77502 11.45L5.12502 8.80004H12.8C13.25 8.80004 13.6 8.45004 13.6 8.00004C13.6 7.57504 13.25 7.20004 12.8 7.20004H5.12502L7.77502 4.57504C7.91693 4.41679 7.99684 4.21257 8.00002 4.00004C8.00002 3.57504 7.65002 3.20004 7.20002 3.20004C7.01524 3.19853 6.83592 3.26267 6.69402 3.38104L2.65002 7.45004Z" fill="#1A1C1F"/>
</g>
<defs>
<clipPath id="clip0_77_475">
<rect width="16" height="16" fill="white"/>
</clipPath>
</defs>
</svg>

<svg xmlns="http://www.w3.org/2000/svg" width="16" height="16" fill="none"><g clip-path="url(#a)"><path fill="#1A1C1F" fill-rule="evenodd" d="M2.65 7.45A.71.71 0 0 0 2.4 8c0 .2.075.4.25.575l3.975 4c.15.15.375.225.575.225.45 0 .8-.35.8-.8 0-.2-.075-.4-.225-.55L5.125 8.8H12.8c.45 0 .8-.35.8-.8 0-.425-.35-.8-.8-.8H5.125l2.65-2.625A.88.88 0 0 0 8 4c0-.425-.35-.8-.8-.8a.78.78 0 0 0-.506.181z" clip-rule="evenodd"/></g><defs><clipPath id="a"><path fill="#fff" d="M0 0h16v16H0z"/></clipPath></defs></svg>
